!!!COM: Bach, Johann Sebastian
!!!OPR: Joh. Seb. Bachs vierstimmige Choralgesänge
!!!XEN: Four-part Chorales
!!!OTL: Chorale 98. Ich hab' mein' Sach' Gott heimgestellt
!!!SCT: BWV 351
!!!SCA: Thematisch-systematisches Verzeichnis der musikalischen Werke Johann Sebastian Bach: Bach-Werke-Verzeichnis (Schmieder)
!!!YOR: Bach Gesellschaft Edition xxxix
!!!ENC: Steven Rasmussen
!!!CDT: 1685/3//-1750/7/28/
!!!OCY: Deutschland
!!!YEC: Copyright (c) 1994, 2000 Center for Computer Assisted Research in the Humanities
!!!YEM: Rights to all derivative editions reserved
!!!YEN: United States of America
**kern	**kern	**kern	**kern	**silbe
*I"[BASSO]	*I"[TENORE]	*I"[ALTO]	*I"[SOPRANO]	*I"[SOPRANO]
*clefF4	*clefGv2	*clefG2	*clefG2	*
*k[b-]	*k[b-]	*k[b-]	*k[b-]	*
*d:	*d:	*d:	*d:	*
*M4/4	*M4/4	*M4/4	*M4/4	*
4G	4B-	4d	4g	Ich
=1	=1	=1	=1	=1
8GL	8B-L	4d	4g	hab'
8FJ	8AJ	.	.	.
4E-	4G	8dL	4g	mein'
.	.	8c#J	.	.
8DL	4A	4d	4f#	Sach'
8CJ	.	.	.	.
8BB-L	4d	8gL	4b-	Gott
8GGJ	.	8fJ	.	.
=2	=2	=2	=2	=2
4C	4c	8e-L	4a	heim-
.	.	8dJ	.	.
4C#	8B-L	4en	4g	-ge-
.	8AJ	.	.	.
4D;	4A;	4d;	4f#;	-stellt,
8DL	4A	4d	4f#	er
8E-J	.	.	.	.
=3	=3	=3	=3	=3
8E-L	4A	4c	4f#	mach's
8DJ	.	.	.	.
8DL	4A	4d	4f#	mit
8CJ	.	.	.	.
8CL	4G	4d	4g	mir,
8BBnJ	.	.	.	.
8CL	4G	4c	4e	wie's
8BB-J	.	.	.	.
=4	=4	=4	=4	=4
4AA	8AL	8cL	4f#	ihm
.	8cJ	8e-J	.	.
4D	8cL	4d	4f#	ge-
.	16B-L	.	.	.
.	16AJJ	.	.	.
4GG;	4B-;	4d;	4g;	-fällt,
4F	4c	4f	4a	soll
=5	=5	=5	=5	=5
8FL	4c	4f	4a	ich
8GJ	.	.	.	.
8FL	4c	4g	4cc	all-
8EJ	.	.	.	.
8FL	4c	4f	4a	-hier
8E-J	.	.	.	.
8E-L	4B-	4f	4f	noch
8DJ	.	.	.	.
=6	=6	=6	=6	=6
8E-L	4B-	8e-L	4g	län-
8EnJ	.	8dJ	.	.
8FL	8AL	8cL	4a	-ger
8F#J	8cJ	8e-J	.	.
4G;	4B-;	4d;	4b-;	leb'n,
4GG	4d	4g	4b-	nicht
=7	=7	=7	=7	=7
4D	4.d	8gL	4a	wi-
.	.	8f#J	.	.
4E-	.	8gL	4g	-der-
.	8c	8GJ	.	.
4D;	4d;	4A;	4f#;	-streb'n,
4D	4A	4d	4f#	sei'm
=8	=8	=8	=8	=8
8AAL	4A	8cL	4f#	Will'n
8BB-J	.	8dJ	.	.
4C	4A	8e-L	4f#	tu'
.	.	8dJ	.	.
8BB-L	4G	4d	4g	ich
8BBnJ	.	.	.	.
8CL	16GLL	4en	4e	mich
.	16AJ	.	.	.
8C#J	8B-J	.	.	.
=9	=9	=9	=9	=9
4D	8AL	4d	4f#	ganz
.	8GJ	.	.	.
4DD	16ALL	4d	4f#	er-
.	16B-J	.	.	.
.	8cJ	.	.	.
4GG;	(8cL	4d;	4g;	-geb'n.
.	8Bn;J)	.	.	.
==|!	==|!	==|!	==|!	==|!
*-	*-	*-	*-	*-
!!!RWG: Key is interpreted using the Humdrum key tool.
!!!URL-pdf: https://s9.imslp.org/files/imglnks/usimg/6/6b/IMSLP24489-PMLP09471-CCARH_Bach_Chorales.pdf#page=69 Musedata edition
!!!URL-pdf: https://s9.imslp.org/files/imglnks/usimg/7/7a/IMSLP04155-Bach_-_BGA_253-438.pdf#page=52 	Bach-Gesellschaft Ausgabe, Band 39 (pp.175-276) Leipzig: Breitkopf und Härtel, 1892. Plate B.W. XXXIX.
!!!END: 1994/06/27
!!!EMD: Converted from MuseData to Humdrum Dec 19, 2000, by Andreas Kornstaedt using muse2kern.
!!!EED: Craig Stuart Sapp
!!!EEV: 2024/03/31
!!!filter-keyboard: extract -i kern | satb2gs
!!!title: @{OTL} (@{SCT})
